X:322
T: Wellington's Coming
N: O'Farrell's Pocket Companion v.4 (Sky ed. p.142)
N: "Irish"
M: 9/8
R: slip jig
L: 1/8
Q: 320
K: Em
c| BAG GDE G2c| BAG GBd efg| BAG GDG dBG| AEA ABd e2 :|
f| g/a/ge dBB dBB| g/a/ge dBB e2f| g/a/ge dBB dBG| ABA ABd e2f|
g/a/ge dBB dBB| g/a/ge dBB e2f| gbg ege dcB| ABA ABd e2 ||
